X:1
T:Title
%%score { ( 1 3 ) | 2 }
L:1/8
M:4/4
K:G
V:1 bass nm="Grand Piano"
V:3 bass 
V:2 bass 
V:1
 z4 z2[Q:1/4=94] [G,B,][A,C] | [B,D]>[B,D] [B,D][K:treble][CE] [B,D][B,D]GA |[M:3/4] B>B Bc B2 | %3
[M:1/4] GB |[M:4/4] d>d dd edcB |[M:3/4] [FA]>[EG] [FA][GB] [FA]2 |[M:1/4] [FA][GB] | %7
[M:4/4] [Fc]>[Fc] [GB][FA] BdBA |[M:3/4] [EG]>[EA] [EG][CE] [EG]2 |[M:1/4] [DF]E | %10
[M:4/4] D>D GA Bd[Ge][Ge] |[M:3/4] [Gd]>[GB] [FA][FB] G2 |[M:1/4] d>d |[M:4/4] d6 z2 | %14
[M:3/4] z d- d4 |[M:1/4] Bd |[M:4/4] [Bd][Ac][Ac][GB] [FA]<[Ac] [Ac][ce] | %17
 [ce][Bd][Bd][Ac] [GB]<[Bd] GA | B6 z2 |[M:3/4] G6 |] %20
V:2
 z4 z2 [G,,D,][G,,D,] | [G,,G,]>[G,,G,] [G,,G,][G,,G,] [G,,G,][G,,G,][G,B,][K:treble][G,CG] | %2
[M:3/4] [G,CG]>[G,DG] [G,DG][G,EG] [G,DG]2 |[M:1/4] [G,B,][G,DG] | %4
[M:4/4] [G,B,G]>[G,B,G] [G,B,G][G,B,G] [CG][B,DG][A,DF][G,DG] | %5
[M:3/4][K:bass] [D,D]>[D,D] [D,D][D,D] [D,D]2 |[M:1/4] [D,C][D,B,] | %7
[M:4/4] [D,A,]>[D,A,] [D,D][D,D][K:treble] [G,DG][G,B,G][G,DG][G,CG] | %8
[M:3/4][K:bass] [C,C]>[C,C] [C,C][C,G,] [C,C]2 |[M:1/4] [C,G,][C,G,C] | %10
[M:4/4] [G,B,]>[G,B,] [G,B,][K:treble][G,C] [G,D][G,B,G][K:bass][C,C][C,C] | %11
[M:3/4] [D,B,]>[D,D] [D,C][D,D] [G,B,]2 |[M:1/4] z2 | %13
[M:4/4] z2 [G,B,]>[G,B,] [G,B,][D,G,][B,,G,][D,F,D] | %14
[M:3/4][K:treble] [G,G][G,B,G] [G,B,]>[G,B,] [G,B,]2 |[M:1/4] [G,G][G,B,G] | %16
[M:4/4][K:bass] [D,D][D,D][D,D][D,D] [D,D]<[D,D] [D,D][D,D] | %17
 [G,D][G,D][G,D][G,D] [G,D]<[G,B,] z2 | z2 [D,D][D,D] [D,D]2 D,2 |[M:3/4] G,,2 G,,2 G,,2 |] %20
V:3
 x8 | x3[K:treble] x5 |[M:3/4] x6 |[M:1/4] x2 |[M:4/4] x8 |[M:3/4] x6 |[M:1/4] x2 |[M:4/4] x8 | %8
[M:3/4] x6 |[M:1/4] x2 |[M:4/4] x8 |[M:3/4] x6 |[M:1/4] x2 |[M:4/4] z2 G>G G[GB][DG]A | %14
[M:3/4] .B2 G>G G2 |[M:1/4] x2 |[M:4/4] x8 | x8 | z2 GG G2 [CFA]2 |[M:3/4] [B,D]2 [CE]2 [B,D]2 |] %20

